X:1
T:Rize, 77.77.77
T:Rize, 77.77.77
T:A A. Wild (?–1903)
T:Public Domain Courtesy of the Cyber Hymnal™
C:A A. Wild (?–1903)
Z:Public Domain
Z:Courtesy of the Cyber Hymnal™
%%score 1 ( 2 3 ) ( 4 5 )
L:1/8
Q:1/4=92
M:6/8
K:G
V:1 treble 
V:2 treble 
V:3 treble 
V:4 bass 
V:5 bass 
V:1
 (BA)G A2 D | (BA)G A3 | (BA)G (dA)F | (AE)A A3 | (BA)G A2 D | (BA)G A3 | B2 B (d^c)B | (^cd)c B3 | %8
 (AB)A d2 G | A2 e d3 |"^riten." d2 B G2 E | D2 A G7 |] %12
V:2
 (BA)[B,DG] [CDA]2 [CD] | (BA)[B,DG] [CDA]3 | (BA)[B,DG] (dA)[DF] | (AE)[=CA] A3 | %4
 (BA)[B,DG] [CDA]2 [CD] | (BA)[B,DG] [CDA]3 | [DB]2 [DB] (d^c)[DB] | (^cd)[Ec] [DB]3 | %8
 (AB)[FA] [Gd]2 G | [FA]2 [Fe] [Gd]3 | d2 B G2 [CE] | [CD]2 [CA] [B,G]7 |] %12
V:3
 [B,D]2 x4 | [B,D]2 x4 | [B,D]2 D2 x2 | ^C2 D2 =C x | [B,D]2 x4 | [B,D]2 x4 | x3 D2 x | E2 x4 | %8
 F2 x2 G x | x6 | d2 B G2 x | x10 |] %12
V:4
 [G,,G,]2 [G,,G,] [G,,F,]2 [G,,F,] | [G,,G,]2 [G,,G,] [G,,F,]3 | %2
 [G,,G,]2 [G,,G,] [G,,F,]2 [A,,A,] | [A,,E,]2 [A,,G,] [D,F,]3 | [G,,G,]2 [G,,G,] [G,,F,]2 [G,,F,] | %5
 [G,,G,]2 [G,,G,] [G,,F,]3 | [G,,G,]2 G, [F,B,]2 [F,B,] | [F,^A,]2 [F,A,] [B,,B,]3 | %8
 [CD]2 [CD] [B,D]2 [B,D] | [CD]2 [CD] [B,D]3 | D2 B, G,2 [C,G,] | (G,F,)[D,F,] [G,,G,]7 |] %12
V:5
 x6 | x6 | x6 | x6 | x6 | x6 | x2 G, x3 | x6 | x6 | x6 | x2 B, G,2 x | D,2 x8 |] %12

